X:1
T:Lament for Mr. Ramsay of Barnton
T:Lament for Mr. Ramsay of Barnton
T:Nathaniel Gow (1763-1831)
C:Nathaniel Gow (1763-1831)
L:1/8
M:4/4
K:G
V:1 treble 
V:1
 B>A GF TE2 D2 | d>=c Be (d/B/)(c/A/) (B/G/)(A/F/) |{G} B>A GF{F} TE2 Dg/>e/ | %3
 (d/B/c/A/ B/G/A/F/) G2 G,2 | B>A GF TE2 D2 | d>=c Be (d/B/)(c/A/) (B/G/)(A/F/) | %6
{G} B>A GF{F} TE2 Dg/>e/ | (d/B/c/A/ B/G/A/F/){F} G2 G,2 :| d>c Bb/a/ Tg2{fg} d>g | %9
 (e/f/g/f/ a/g/f/e/) (d/B/)(g/b/) a/f/g/e/ | d>=c Bb/a/ g2 (Tf/e/)(f/g/) | %11
 a/d'/^c'/>b/{b} a/>g/{g}f/>e/ e2{f^cd} d2 | d>=c Bg/a/ (b/>g/)(g/<d/) d/B/c/d/ | %13
 (e/d/)(c/B/) (c/B/)(A/G/) (G/F/E/D/) (E/F/G/A/) | B>A GF TE2 Dg/>e/ | %15
 (d/B/c/A/ B/g/A/F/){F} G2 G,2 | d>=c Bb/a/ Tg3/2a/4b/4 dg | %17
 (e/f/g/)f/ (a/g/)(f/e/) d/B/(g/b/) a/f/g/e/ | d>=c Bb/a/ g2 Tf/e/f/g/ | %19
 a/d'/^c'/>b/{b} a/>g/{g}f/>e/ de/4f/4 g/4a/b/4c'/4 d'2 | d>=c Bg/a/ (b/g/)(g/d/) .d/(B/c/d/) | %21
 e/d/c/B/{AB} c/B/A/G/ G/F/E/D/ (E/G/F/A/ G/B/A/c/) | TB>A GF (TE3/2F/4G/4) Dg/e/ | %23
 .d/(B/c/)(A/ B/)(G/A/)F/ TG2 G,2 || %24

